svg/私密文件夹-有内容.svg

<svg fill="none" viewBox="0 0 544 544"><path fill="#EF7F4B" d="M16 98.56v346.388c0 14.804 12.002 26.806 26.806 26.806h458.388c14.804 0 26.806-12.002 26.806-26.806V153.227c0-14.805-12.002-26.806-26.806-26.806H260.603c-10.421 0-19.86-6.083-25.312-14.965-9.934-16.185-27.847-39.702-48.066-39.702H42.765C27.96 71.754 16 83.755 16 98.56"/><rect width="482" height="173" x="31" y="143" fill="white" rx="20"/><path fill="url(#a)" d="M528 187.273v248.674c0 14.805-12.002 26.807-26.806 26.807H42.806C28.002 462.754 16 450.752 16 435.947V187.273c0-14.805 11.962-26.806 26.767-26.806h135.411c45.571 0 39.204-.002 70.366-.001 85.023.004 201.002.002 252.695.001 14.805 0 26.761 12.001 26.761 26.806"/><g clip-path="url(#b)" filter="url(#c)"><path fill="#FDBA74" fill-rule="evenodd" d="M364.622 182.612c-31.752 3.882-57.54 26.694-64.722 57.252-1.857 7.897-1.819 7.177-2.002 38.078l-.168 28.408-12.533.152c-11.211.135-12.692.21-14.043.71-6.387 2.364-11.271 7.727-12.506 13.734-.575 2.798-.453 141.179.127 143.471 1.645 6.505 7.074 11.938 13.575 13.584 2.733.693 198.119.693 200.852 0 6.464-1.637 11.797-6.919 13.427-13.297.823-3.218.964-140.938.148-144.163-1.266-5.006-5.117-9.87-9.517-12.021-4.015-1.962-4.515-2.019-17.709-2.019H447.7l-.11-28.332c-.118-30.372-.089-29.747-1.731-37.33-7.941-36.661-44.324-62.739-81.237-58.227m11.736 29.909c20.607 1.825 36.695 15.921 41.49 36.351.638 2.721.654 3.345.752 30.203l.1 27.426h-91.852l.105-27.426c.117-30.484-.009-28.491 2.23-35.282 5.662-17.173 21.46-29.652 39.574-31.261 3.863-.343 3.857-.343 7.601-.011m2.005 140.838c19.283 4.611 23.497 31.229 6.568 41.495l-1.887 1.144v15.145c0 15.133-.001 15.145-.657 15.844l-.657.699h-17.97l-.626-.796c-.614-.781-.626-1.078-.626-15.824v-15.027l-2.039-1.318c-21.584-13.955-7.139-47.348 17.894-41.362" clip-rule="evenodd"/></g><defs><linearGradient id="a" x1="528" x2="51.871" y1="160.466" y2="511.419" gradientUnits="userSpaceOnUse"><stop offset=".234" stop-color="#FFB76D"/><stop offset="1" stop-color="#EF7F4B"/></linearGradient><clipPath id="b"><rect width="512" height="326" x="16" y="136.754" fill="white" rx="25.466"/></clipPath><filter id="c" width="235.049" height="302.416" x="255.273" y="179.104" color-interpolation-filters="sRGB" filterUnits="userSpaceOnUse"><feFlood flood-opacity="0" result="BackgroundImageFix"/><feColorMatrix in="SourceAlpha" result="hardAlpha" type="matrix" values="0 0 0 0 0 0 0 0 0 0 0 0 0 0 0 0 0 0 127 0"/><feOffset dx="1" dy="-1"/><feGaussianBlur stdDeviation="1"/><feColorMatrix type="matrix" values="0 0 0 0 0.87451 0 0 0 0 0.643137 0 0 0 0 0.4 0 0 0 0.5 0"/><feBlend in2="BackgroundImageFix" mode="normal" result="effect1_dropShadow_2434_3324"/><feColorMatrix in="SourceAlpha" result="hardAlpha" type="matrix" values="0 0 0 0 0 0 0 0 0 0 0 0 0 0 0 0 0 0 127 0"/><feOffset dx="-1" dy="1"/><feGaussianBlur stdDeviation="1"/><feColorMatrix type="matrix" values="0 0 0 0 1 0 0 0 0 0.815686 0 0 0 0 0.509804 0 0 0 0.3 0"/><feBlend in2="effect1_dropShadow_2434_3324" mode="normal" result="effect2_dropShadow_2434_3324"/><feBlend in="SourceGraphic" in2="effect2_dropShadow_2434_3324" mode="normal" result="shape"/><feColorMatrix in="SourceAlpha" result="hardAlpha" type="matrix" values="0 0 0 0 0 0 0 0 0 0 0 0 0 0 0 0 0 0 127 0"/><feOffset dx="-3" dy="3"/><feGaussianBlur stdDeviation="4"/><feComposite in2="hardAlpha" k2="-1" k3="1" operator="arithmetic"/><feColorMatrix type="matrix" values="0 0 0 0 0.87451 0 0 0 0 0.643137 0 0 0 0 0.4 0 0 0 0.9 0"/><feBlend in2="shape" mode="normal" result="effect3_innerShadow_2434_3324"/><feColorMatrix in="SourceAlpha" result="hardAlpha" type="matrix" values="0 0 0 0 0 0 0 0 0 0 0 0 0 0 0 0 0 0 127 0"/><feOffset dx="3" dy="-3"/><feGaussianBlur stdDeviation="3"/><feComposite in2="hardAlpha" k2="-1" k3="1" operator="arithmetic"/><feColorMatrix type="matrix" values="0 0 0 0 1 0 0 0 0 0.815686 0 0 0 0 0.509804 0 0 0 0.9 0"/><feBlend in2="effect3_innerShadow_2434_3324" mode="normal" result="effect4_innerShadow_2434_3324"/><feColorMatrix in="SourceAlpha" result="hardAlpha" type="matrix" values="0 0 0 0 0 0 0 0 0 0 0 0 0 0 0 0 0 0 127 0"/><feOffset dx="-3" dy="-3"/><feGaussianBlur stdDeviation="3"/><feComposite in2="hardAlpha" k2="-1" k3="1" operator="arithmetic"/><feColorMatrix type="matrix" values="0 0 0 0 0.87451 0 0 0 0 0.643137 0 0 0 0 0.4 0 0 0 0.2 0"/><feBlend in2="effect4_innerShadow_2434_3324" mode="normal" result="effect5_innerShadow_2434_3324"/><feColorMatrix in="SourceAlpha" result="hardAlpha" type="matrix" values="0 0 0 0 0 0 0 0 0 0 0 0 0 0 0 0 0 0 127 0"/><feOffset dx="3" dy="3"/><feGaussianBlur stdDeviation="3"/><feComposite in2="hardAlpha" k2="-1" k3="1" operator="arithmetic"/><feColorMatrix type="matrix" values="0 0 0 0 0.87451 0 0 0 0 0.643137 0 0 0 0 0.4 0 0 0 0.2 0"/><feBlend in2="effect5_innerShadow_2434_3324" mode="normal" result="effect6_innerShadow_2434_3324"/></filter></defs></svg>

<svg width="544" height="544" viewBox="0 0 544 544" fill="none" xmlns="http://www.w3.org/2000/svg">
<path d="M16 98.5602V444.948C16 459.752 28.0016 471.754 42.8063 471.754H501.194C515.998 471.754 528 459.752 528 444.948V153.227C528 138.422 515.998 126.421 501.194 126.421H260.603C250.182 126.421 240.743 120.338 235.291 111.456C225.357 95.2712 207.444 71.7539 187.225 71.7539H42.7644C27.9597 71.7539 16 83.7555 16 98.5602Z" fill="#EF7F4B"/>
<rect x="31" y="143" width="482" height="173" rx="20" fill="white"/>
<path d="M528 187.273V435.947C528 450.752 515.998 462.754 501.194 462.754H42.8063C28.0016 462.754 16 450.752 16 435.947V187.273C16 172.468 27.962 160.467 42.7667 160.467H178.178C223.749 160.467 217.382 160.465 248.544 160.466C333.567 160.47 449.546 160.468 501.239 160.467C516.044 160.467 528 172.468 528 187.273Z" fill="url(#paint0_linear_2434_3324)"/>
<g clip-path="url(#clip0_2434_3324)">
<g filter="url(#filter0_ddiiii_2434_3324)">
<path fill-rule="evenodd" clip-rule="evenodd" d="M364.622 182.612C332.87 186.494 307.082 209.306 299.9 239.864C298.043 247.761 298.081 247.041 297.898 277.942L297.73 306.35L285.197 306.502C273.986 306.637 272.505 306.712 271.154 307.212C264.767 309.576 259.883 314.939 258.648 320.946C258.073 323.744 258.195 462.125 258.775 464.417C260.42 470.922 265.849 476.355 272.35 478.001C275.083 478.694 470.469 478.694 473.202 478.001C479.666 476.364 484.999 471.082 486.629 464.704C487.452 461.486 487.593 323.766 486.777 320.541C485.511 315.535 481.66 310.671 477.26 308.52C473.245 306.558 472.745 306.501 459.551 306.501H447.7L447.59 278.169C447.472 247.797 447.501 248.422 445.859 240.839C437.918 204.178 401.535 178.1 364.622 182.612ZM376.358 212.521C396.965 214.346 413.053 228.442 417.848 248.872C418.486 251.593 418.502 252.217 418.6 279.075L418.7 306.501H372.774H326.848L326.953 279.075C327.07 248.591 326.944 250.584 329.183 243.793C334.845 226.62 350.643 214.141 368.757 212.532C372.62 212.189 372.614 212.189 376.358 212.521ZM378.363 353.359C397.646 357.97 401.86 384.588 384.931 394.854L383.044 395.998V411.143C383.044 426.276 383.043 426.288 382.387 426.987L381.73 427.686H372.745H363.76L363.134 426.89C362.52 426.109 362.508 425.812 362.508 411.066V396.039L360.469 394.721C338.885 380.766 353.33 347.373 378.363 353.359Z" fill="#FDBA74"/>
</g>
</g>
<defs>
<filter id="filter0_ddiiii_2434_3324" x="255.273" y="179.104" width="235.049" height="302.416" filterUnits="userSpaceOnUse" color-interpolation-filters="sRGB">
<feFlood flood-opacity="0" result="BackgroundImageFix"/>
<feColorMatrix in="SourceAlpha" type="matrix" values="0 0 0 0 0 0 0 0 0 0 0 0 0 0 0 0 0 0 127 0" result="hardAlpha"/>
<feOffset dx="1" dy="-1"/>
<feGaussianBlur stdDeviation="1"/>
<feColorMatrix type="matrix" values="0 0 0 0 0.87451 0 0 0 0 0.643137 0 0 0 0 0.4 0 0 0 0.5 0"/>
<feBlend mode="normal" in2="BackgroundImageFix" result="effect1_dropShadow_2434_3324"/>
<feColorMatrix in="SourceAlpha" type="matrix" values="0 0 0 0 0 0 0 0 0 0 0 0 0 0 0 0 0 0 127 0" result="hardAlpha"/>
<feOffset dx="-1" dy="1"/>
<feGaussianBlur stdDeviation="1"/>
<feColorMatrix type="matrix" values="0 0 0 0 1 0 0 0 0 0.815686 0 0 0 0 0.509804 0 0 0 0.3 0"/>
<feBlend mode="normal" in2="effect1_dropShadow_2434_3324" result="effect2_dropShadow_2434_3324"/>
<feBlend mode="normal" in="SourceGraphic" in2="effect2_dropShadow_2434_3324" result="shape"/>
<feColorMatrix in="SourceAlpha" type="matrix" values="0 0 0 0 0 0 0 0 0 0 0 0 0 0 0 0 0 0 127 0" result="hardAlpha"/>
<feOffset dx="-3" dy="3"/>
<feGaussianBlur stdDeviation="4"/>
<feComposite in2="hardAlpha" operator="arithmetic" k2="-1" k3="1"/>
<feColorMatrix type="matrix" values="0 0 0 0 0.87451 0 0 0 0 0.643137 0 0 0 0 0.4 0 0 0 0.9 0"/>
<feBlend mode="normal" in2="shape" result="effect3_innerShadow_2434_3324"/>
<feColorMatrix in="SourceAlpha" type="matrix" values="0 0 0 0 0 0 0 0 0 0 0 0 0 0 0 0 0 0 127 0" result="hardAlpha"/>
<feOffset dx="3" dy="-3"/>
<feGaussianBlur stdDeviation="3"/>
<feComposite in2="hardAlpha" operator="arithmetic" k2="-1" k3="1"/>
<feColorMatrix type="matrix" values="0 0 0 0 1 0 0 0 0 0.815686 0 0 0 0 0.509804 0 0 0 0.9 0"/>
<feBlend mode="normal" in2="effect3_innerShadow_2434_3324" result="effect4_innerShadow_2434_3324"/>
<feColorMatrix in="SourceAlpha" type="matrix" values="0 0 0 0 0 0 0 0 0 0 0 0 0 0 0 0 0 0 127 0" result="hardAlpha"/>
<feOffset dx="-3" dy="-3"/>
<feGaussianBlur stdDeviation="3"/>
<feComposite in2="hardAlpha" operator="arithmetic" k2="-1" k3="1"/>
<feColorMatrix type="matrix" values="0 0 0 0 0.87451 0 0 0 0 0.643137 0 0 0 0 0.4 0 0 0 0.2 0"/>
<feBlend mode="normal" in2="effect4_innerShadow_2434_3324" result="effect5_innerShadow_2434_3324"/>
<feColorMatrix in="SourceAlpha" type="matrix" values="0 0 0 0 0 0 0 0 0 0 0 0 0 0 0 0 0 0 127 0" result="hardAlpha"/>
<feOffset dx="3" dy="3"/>
<feGaussianBlur stdDeviation="3"/>
<feComposite in2="hardAlpha" operator="arithmetic" k2="-1" k3="1"/>
<feColorMatrix type="matrix" values="0 0 0 0 0.87451 0 0 0 0 0.643137 0 0 0 0 0.4 0 0 0 0.2 0"/>
<feBlend mode="normal" in2="effect5_innerShadow_2434_3324" result="effect6_innerShadow_2434_3324"/>
</filter>
<linearGradient id="paint0_linear_2434_3324" x1="528" y1="160.466" x2="51.8707" y2="511.419" gradientUnits="userSpaceOnUse">
<stop offset="0.234375" stop-color="#FFB76D"/>
<stop offset="1" stop-color="#EF7F4B"/>
</linearGradient>
<clipPath id="clip0_2434_3324">
<rect x="16" y="136.754" width="512" height="326" rx="25.466" fill="white"/>
</clipPath>
</defs>
</svg>
